src/extras-openmoji/brand/E056.svg

<?xml version="1.0" encoding="UTF-8"?>
<svg id="emoji" xmlns="http://www.w3.org/2000/svg" viewBox="0 0 72 72">
  <g id="grid">
    <path d="m68,4v64H4V4h64Zm4-4H0v72h72V0Z" fill="#b3b3b3"/>
    <path d="m12.923,10.9583h46.1539c.51,0,.9992.2026,1.3598.5633.3607.3606.5633.8498.5633,1.3598v46.1538c0,.51-.2026.9992-.5633,1.3598-.3606.3607-.8498.5633-1.3598.5633H12.9231c-.51,0-.9992-.2026-1.3598-.5633-.3607-.3606-.5633-.8498-.5633-1.3598V12.8813c0-.51.2026-.9991.5632-1.3598.3607-.3606.8498-.5632,1.3598-.5632h0Z" fill="none" stroke="#00a5ff" stroke-miterlimit="10" stroke-width=".1"/>
    <path d="m53.7463,4H18.2537c-1.2447,0-2.2537,1.009-2.2537,2.2537v59.4926c0,1.2447,1.009,2.2537,2.2537,2.2537h35.4926c1.2447,0,2.2537-1.009,2.2537-2.2537V6.2537c0-1.2447-1.009-2.2537-2.2537-2.2537Z" fill="none" stroke="#00a5ff" stroke-miterlimit="10" stroke-width=".1"/>
    <path d="m68,53.7463V18.2537c0-1.2447-1.009-2.2537-2.2537-2.2537H6.2537c-1.2447,0-2.2537,1.009-2.2537,2.2537v35.4926c0,1.2447,1.009,2.2537,2.2537,2.2537h59.4926c1.2447,0,2.2537-1.009,2.2537-2.2537Z" fill="none" stroke="#00a5ff" stroke-miterlimit="10" stroke-width=".1"/>
    <path d="m36,65c16.0163,0,29-12.9837,29-29S52.0163,7,36,7,7,19.9837,7,36s12.9837,29,29,29Z" fill="none" stroke="#00a5ff" stroke-miterlimit="10" stroke-width=".1"/>
  </g>
  <g id="color">
    <path d="m26.7202,38.0016c10.1533,16.7933,17.0133.2112,17.0133.2112l-17.0133-.2112Z" fill="#fff"/>
    <g>
      <path d="m58.9787,37c.0141-.3316.0213-.6649.0213-1,0-12.7025-10.2975-23-23-23s-23,10.2975-23,23,10.2975,23,23,23c10.6402,0,19.5929-7.2252,22.2195-17.037h-12.9744c-1.9589,3.0309-5.3677,5.037-9.2451,5.037-5.738,0-10.4499-4.3935-10.9551-10h33.9338Zm-13.1781-6c-1.8207-3.5617-5.5259-6-9.8006-6s-7.9799,2.4383-9.8006,6h19.6012Z" fill="#61b2e4" fill-rule="evenodd"/>
      <path d="m58.9787,37v1c.5356,0,.9761-.4221.999-.9573l-.999-.0427Zm-.7592,4.963l.966.2585c.0804-.3002.0165-.6208-.1727-.8674-.1893-.2466-.4825-.3911-.7933-.3911v1Zm-12.9744,0v-1c-.3394,0-.6556.1721-.8398.4571l.8398.5429Zm-20.2002-4.963v-1c-.2809,0-.5488.1181-.7382.3254-.1895.2073-.283.4847-.2578.7644l.996-.0898Zm20.7557-6v1c.3482,0,.6713-.1811.853-.4781.1817-.2969.1959-.6671.0374-.9771l-.8904.4552Zm-19.6012,0l-.8904-.4552c-.1585.31-.1443.6802.0374.9771.1818.297.5049.4781.853.4781v-1Zm31.8006,5c0,.3208-.0069.6399-.0204.9573l1.9981.0854c.0148-.3458.0223-.6934.0223-1.0427h-2Zm-22-22c12.1503,0,22,9.8497,22,22h2c0-13.2548-10.7452-24-24-24v2Zm-22,22c0-12.1503,9.8497-22,22-22v-2c-13.2548,0-24,10.7452-24,24h2Zm22,22c-12.1503,0-22-9.8497-22-22h-2c0,13.2548,10.7452,24,24,24v-2Zm21.2535-16.2956c-2.5124,9.3855-11.0773,16.2956-21.2535,16.2956v2c11.1043,0,20.4448-7.5404,23.1855-17.7785l-1.932-.5171Zm-12.0084,1.2586h12.9744v-2h-12.9744v2Zm-9.2451,5.037c4.2309,0,7.9496-2.1903,10.085-5.4942l-1.6797-1.0857c-1.7825,2.758-4.8814,4.5799-8.4053,4.5799v2Zm-11.9511-10.9102c.5512,6.1172,5.6909,10.9102,11.9511,10.9102v-2c-5.2158,0-9.5-3.994-9.9592-9.0898l-1.9919.1796Zm34.9298-1.0898H25.0449v2h33.9338v-2Zm-22.9787-10c3.8847,0,7.2537,2.2148,8.9102,5.4552l1.7808-.9104c-1.985-3.883-6.0263-6.5448-10.691-6.5448v2Zm-8.9102,5.4552c1.6565-3.2404,5.0256-5.4552,8.9102-5.4552v-2c-4.6647,0-8.706,2.6618-10.691,6.5448l1.7808.9104Zm18.7108-1.4552h-19.6012v2h19.6012v-2Z" fill="#61b2e4"/>
    </g>
    <path d="m59.9989,25.3658c-.3613-2.6684-1.408-5.0042-3.192-6.7882-6.4964-6.4965-20.3106-3.2152-30.8547,7.329-10.5442,10.5441-13.8255,24.3583-7.329,30.8547,1.8526,1.8526,4.3003,2.9101,7.0976,3.2307-4.0602.1159-7.6284-1.0258-10.1577-3.5551-6.9459-6.9458-3.4267-21.7265,7.8603-33.0135,11.287-11.287,26.0677-14.8062,33.0135-7.8603,2.4554,2.4553,3.603,5.8897,3.562,9.8027Z" fill="#fcea2b" fill-rule="evenodd"/>
  </g>
  <g id="line">
    <path d="m17.8799,50.1671c4.21,5.3772,10.7615,8.8329,18.1201,8.8329,10.6402,0,19.5929-7.2252,22.2195-17.037h-12.9744c-1.9589,3.0309-5.3677,5.037-9.2451,5.037-5.738,0-10.4499-4.3935-10.9551-10h33.9338c.0141-.3316.0213-.6649.0213-1,0-7.4346-3.5275-14.0453-9-18.2497m-36.8061,15.2497c1.2984-9.9675,8.9784-17.93,18.8061-19.6534m4,11.6534c4.2747,0,7.9799,2.4383,9.8006,6h-19.6012c1.8207-3.5617,5.5259-6,9.8006-6Z" fill="none" stroke="#000" stroke-linecap="round" stroke-linejoin="round" stroke-width="2"/>
    <path d="m56.8069,18.5776l-.7071.7071h0l.7071-.7071Zm3.192,6.7882l-.9909.1342c.0703.5194.5298.8964,1.053.8639.5231-.0325.9324-.4635.9379-.9876l-1-.0105Zm-34.0467.5408l.7071.7071-.7071-.7071Zm-7.329,30.8547l-.7072.7071h0l.7071-.7071Zm7.0976,3.2307l.0285.9996c.5244-.015.9481-.4327.9705-.9568.0225-.5242-.364-.9765-.8852-1.0363l-.1138.9935Zm-10.1577-3.5551l.7071-.7071h0l-.7071.7071Zm7.8603-33.0135l.7071.7071-.7071-.7071Zm33.0135-7.8603l-.7071.7071.7071-.7071Zm-.3371,3.7216c1.6052,1.6052,2.5713,3.7275,2.9082,6.2153l1.9819-.2684c-.3858-2.849-1.5131-5.3983-3.4759-7.3611l-1.4142,1.4142Zm-29.4405,7.329c5.1626-5.1626,11.0933-8.512,16.4692-9.7889,5.3942-1.2813,10.0598-.4516,12.9713,2.4599l1.4142-1.4142c-3.5849-3.585-9.0747-4.3629-14.8477-2.9916-5.7913,1.3756-12.0397,4.939-17.4213,10.3206l1.4143,1.4142Zm-7.329,29.4405c-2.9116-2.9115-3.7412-7.5771-2.4599-12.9713,1.2769-5.3759,4.6263-11.3066,9.7889-16.4692l-1.4143-1.4142c-5.3815,5.3815-8.9449,11.6299-10.3205,17.4212-1.3713,5.773-.5934,11.2628,2.9915,14.8477l1.4143-1.4142Zm6.5043,2.9443c-2.613-.2995-4.8379-1.2778-6.5043-2.9443l-1.4142,1.4142c2.0387,2.0388,4.7093,3.1754,7.6908,3.5171l.2277-1.987Zm-.1424-.0061c-3.8598.1102-7.1344-.975-9.422-3.2626l-1.4142,1.4142c2.771,2.7711,6.6329,3.9692,10.8933,3.8476l-.0571-1.9992Zm-9.422-3.2626c-3.1358-3.1358-4.0189-8.1548-2.6415-13.9401,1.3731-5.7667,4.9676-12.125,10.5018-17.6592l-1.4142-1.4142c-5.7528,5.7528-9.5613,12.4284-11.0332,18.6102-1.4674,6.1633-.6372,12.0075,3.1729,15.8175l1.4142-1.4142Zm7.8603-31.5993c5.5342-5.5342,11.8925-9.1287,17.6592-10.5018,5.7853-1.3774,10.8043-.4943,13.9401,2.6415l1.4142-1.4142c-3.81-3.8101-9.6542-4.6403-15.8175-3.1729-6.1818,1.4719-12.8574,5.2804-18.6102,11.0332l1.4142,1.4142Zm31.5993-7.8603c2.2211,2.2211,3.3081,5.3714,3.2692,9.0851l1.9999.021c.043-4.1123-1.1653-7.8308-3.8549-10.5203l-1.4142,1.4142Z"/>
  </g>
</svg>

<svg id="emoji" viewBox="0 0 72 72" xmlns="http://www.w3.org/2000/svg">
  <g id="grid">
    <path fill="#B3B3B3" d="M68 4V68H4V4H68ZM72 0H0V72H72V0Z"/>
    <path fill="none" stroke="#00A5FF" stroke-miterlimit="10" stroke-width="0.1" d="M12.923 10.9583H59.0769C59.5869 10.9583 60.0761 11.1609 60.4367 11.5216C60.7974 11.8822 61 12.3714 61 12.8814V59.0352C61 59.5452 60.7974 60.0344 60.4367 60.395C60.0761 60.7557 59.5869 60.9583 59.0769 60.9583H12.9231C12.4131 60.9583 11.9239 60.7557 11.5633 60.395C11.2026 60.0344 11 59.5452 11 59.0352V12.8813C11 12.3713 11.2026 11.8822 11.5632 11.5215C11.9239 11.1609 12.413 10.9583 12.923 10.9583V10.9583Z"/>
    <path fill="none" stroke="#00A5FF" stroke-miterlimit="10" stroke-width="0.1" d="M53.7463 4H18.2537C17.009 4 16 5.00902 16 6.2537V65.7463C16 66.991 17.009 68 18.2537 68H53.7463C54.991 68 56 66.991 56 65.7463V6.2537C56 5.00902 54.991 4 53.7463 4Z"/>
    <path fill="none" stroke="#00A5FF" stroke-miterlimit="10" stroke-width="0.1" d="M68 53.7463V18.2537C68 17.009 66.991 16 65.7463 16L6.2537 16C5.00902 16 4 17.009 4 18.2537V53.7463C4 54.991 5.00902 56 6.2537 56L65.7463 56C66.991 56 68 54.991 68 53.7463Z"/>
    <path fill="none" stroke="#00A5FF" stroke-miterlimit="10" stroke-width="0.1" d="M36 65C52.0163 65 65 52.0163 65 36C65 19.9837 52.0163 7 36 7C19.9837 7 7 19.9837 7 36C7 52.0163 19.9837 65 36 65Z"/>
  </g>
  <g id="color">
    <g>
      <path fill="#61B2E4" fill-rule="evenodd" d="M58.9787 37C58.9928 36.6684 59 36.3351 59 36C59 23.2975 48.7025 13 36 13C23.2975 13 13 23.2975 13 36C13 48.7025 23.2975 59 36 59C46.6402 59 55.5929 51.7748 58.2195 41.963H45.2451C43.2862 44.9939 39.8774 47 36 47C30.262 47 25.5501 42.6065 25.0449 37H58.9787ZM45.8006 31C43.9799 27.4383 40.2747 25 36 25C31.7253 25 28.0201 27.4383 26.1994 31H45.8006Z" clip-rule="evenodd"/>
      <path fill="#61B2E4" d="M58.9787 37V38C59.5143 38 59.9548 37.5779 59.9777 37.0427L58.9787 37ZM58.2195 41.963L59.1855 42.2215C59.2659 41.9213 59.202 41.6007 59.0128 41.3541C58.8235 41.1075 58.5303 40.963 58.2195 40.963V41.963ZM45.2451 41.963V40.963C44.9057 40.963 44.5895 41.1351 44.4053 41.4201L45.2451 41.963ZM25.0449 37V36C24.764 36 24.4961 36.1181 24.3067 36.3254C24.1172 36.5327 24.0237 36.8101 24.0489 37.0898L25.0449 37ZM45.8006 31V32C46.1488 32 46.4719 31.8189 46.6536 31.5219C46.8353 31.225 46.8495 30.8548 46.691 30.5448L45.8006 31ZM26.1994 31L25.309 30.5448C25.1505 30.8548 25.1647 31.225 25.3464 31.5219C25.5282 31.8189 25.8513 32 26.1994 32V31ZM58 36C58 36.3208 57.9931 36.6399 57.9796 36.9573L59.9777 37.0427C59.9925 36.6969 60 36.3493 60 36H58ZM36 14C48.1503 14 58 23.8497 58 36H60C60 22.7452 49.2548 12 36 12V14ZM14 36C14 23.8497 23.8497 14 36 14V12C22.7452 12 12 22.7452 12 36H14ZM36 58C23.8497 58 14 48.1503 14 36H12C12 49.2548 22.7452 60 36 60V58ZM57.2535 41.7044C54.7411 51.0899 46.1762 58 36 58V60C47.1043 60 56.4448 52.4596 59.1855 42.2215L57.2535 41.7044ZM45.2451 42.963H58.2195V40.963H45.2451V42.963ZM36 48C40.2309 48 43.9496 45.8097 46.085 42.5058L44.4053 41.4201C42.6228 44.1781 39.5239 46 36 46V48ZM24.0489 37.0898C24.6001 43.207 29.7398 48 36 48V46C30.7842 46 26.5 42.006 26.0408 36.9102L24.0489 37.0898ZM58.9787 36H25.0449V38H58.9787V36ZM36 26C39.8847 26 43.2537 28.2148 44.9102 31.4552L46.691 30.5448C44.706 26.6618 40.6647 24 36 24V26ZM27.0898 31.4552C28.7463 28.2148 32.1154 26 36 26V24C31.3353 24 27.294 26.6618 25.309 30.5448L27.0898 31.4552ZM45.8006 30H26.1994V32H45.8006V30Z"/>
    </g>
    <path fill="#FCEA2B" fill-rule="evenodd" d="M59.9989 25.3658C59.6376 22.6974 58.5909 20.3616 56.8069 18.5776C50.3105 12.0811 36.4963 15.3624 25.9522 25.9066C15.408 36.4507 12.1267 50.2649 18.6232 56.7613C20.4758 58.6139 22.9235 59.6714 25.7208 59.992C21.6606 60.1079 18.0924 58.9662 15.5631 56.4369C8.61722 49.4911 12.1364 34.7104 23.4234 23.4234C34.7104 12.1364 49.4911 8.61722 56.4369 15.5631C58.8923 18.0184 60.0399 21.4528 59.9989 25.3658Z" clip-rule="evenodd"/>
  </g>
  <g id="line">
    <path fill="none" stroke="#000" stroke-linecap="round" stroke-linejoin="round" stroke-width="2" d="M17.8799 50.1671C22.0899 55.5443 28.6414 59 36 59C46.6402 59 55.5929 51.7748 58.2195 41.963H45.2451C43.2862 44.9939 39.8774 47 36 47C30.262 47 25.5501 42.6065 25.0449 37H58.9787C58.9928 36.6684 59 36.3351 59 36C59 28.5654 55.4725 21.9547 50 17.7503M13.1939 33C14.4923 23.0325 22.1723 15.07 32 13.3466M36 25C40.2747 25 43.9799 27.4383 45.8006 31H26.1994C28.0201 27.4383 31.7253 25 36 25Z"/>
    <path fill="#000" d="M56.8069 18.5776L56.0998 19.2847V19.2847L56.8069 18.5776ZM59.9989 25.3658L59.008 25.5C59.0783 26.0194 59.5378 26.3964 60.061 26.3639C60.5841 26.3314 60.9934 25.9004 60.9989 25.3763L59.9989 25.3658ZM25.9522 25.9066L26.6593 26.6137L25.9522 25.9066ZM18.6232 56.7613L17.916 57.4684H17.9161L18.6232 56.7613ZM25.7208 59.992L25.7493 60.9916C26.2737 60.9766 26.6974 60.5589 26.7198 60.0348C26.7423 59.5106 26.3558 59.0583 25.8346 58.9985L25.7208 59.992ZM15.5631 56.4369L16.2702 55.7298H16.2702L15.5631 56.4369ZM23.4234 23.4234L24.1305 24.1305L23.4234 23.4234ZM56.4369 15.5631L55.7298 16.2702L56.4369 15.5631ZM56.0998 19.2847C57.705 20.8899 58.6711 23.0122 59.008 25.5L60.9899 25.2316C60.6041 22.3826 59.4768 19.8333 57.514 17.8705L56.0998 19.2847ZM26.6593 26.6137C31.8219 21.4511 37.7526 18.1017 43.1285 16.8248C48.5227 15.5435 53.1883 16.3732 56.0998 19.2847L57.514 17.8705C53.9291 14.2855 48.4393 13.5076 42.6663 14.8789C36.875 16.2545 30.6266 19.8179 25.245 25.1995L26.6593 26.6137ZM19.3303 56.0542C16.4187 53.1427 15.5891 48.4771 16.8704 43.0829C18.1473 37.707 21.4967 31.7763 26.6593 26.6137L25.245 25.1995C19.8635 30.581 16.3001 36.8294 14.9245 42.6207C13.5532 48.3937 14.3311 53.8835 17.916 57.4684L19.3303 56.0542ZM25.8346 58.9985C23.2216 58.699 20.9967 57.7207 19.3303 56.0542L17.9161 57.4684C19.9548 59.5072 22.6254 60.6438 25.6069 60.9855L25.8346 58.9985ZM25.6922 58.9924C21.8324 59.1026 18.5578 58.0174 16.2702 55.7298L14.856 57.144C17.627 59.9151 21.4889 61.1132 25.7493 60.9916L25.6922 58.9924ZM16.2702 55.7298C13.1344 52.594 12.2513 47.575 13.6287 41.7897C15.0018 36.023 18.5963 29.6647 24.1305 24.1305L22.7163 22.7163C16.9635 28.4691 13.155 35.1447 11.6831 41.3265C10.2157 47.4898 11.0459 53.334 14.856 57.144L16.2702 55.7298ZM24.1305 24.1305C29.6647 18.5963 36.023 15.0018 41.7897 13.6287C47.575 12.2513 52.594 13.1344 55.7298 16.2702L57.144 14.856C53.334 11.0459 47.4898 10.2157 41.3265 11.6831C35.1447 13.155 28.4691 16.9635 22.7163 22.7163L24.1305 24.1305ZM55.7298 16.2702C57.9509 18.4913 59.0379 21.6416 58.999 25.3553L60.9989 25.3763C61.0419 21.264 59.8336 17.5455 57.144 14.856L55.7298 16.2702Z"/>
  </g>
</svg>
